X:1
T:O Quam Gloriosum
T:Marenzio (1560-1599)
T:O Quam Gloriosum
C:Marenzio (1560-1599)
%%score [ 1 2 3 4 ]
L:1/8
M:4/2
K:Eb
V:1 treble nm="SOPRANO" snm="S."
V:2 treble nm="ALTO" snm="A."
V:3 treble-8 transpose=-12 nm="TENOR" snm="T."
V:4 bass nm="BASS" snm="B."
V:1
"^O how glorious is the kingdomin which all the saintsrejoice with Christ, clad in robes of whitethey follow the Lamb wherever he goes." B16 | %1
w: O|
 B8 B8- | B4 B4 c8 | B4 B4 A8- | A8 G4 c4 | e4 e4 _d8 | c4 e6 dc B2 c2 | F2 G2 A2 B2 c8 | %8
w: quam glo-|* ri- o-|sum est re-|* gnum, in|quo cum Chri-|sto gau- * * * *||
 B6 G2 A4 F4 | z4 c4 e4 e4 | _d8 c4 c4- | c2 BA G2 A2 B4 F4 | z4 c4 e4 e4 | _d8 c4 e4- | %14
w: * * * dent,|in quo cum|Chri- sto gau-|* * * * * * dent|in quo cum|Chri- sto gau-|
 e2 =dc B2 c2 F2 G2 A2 B2 | c6 d2 e4 B4 | z4 c8 G4 | =A4 B6 AG A4 | B16- | B16 | z16 | B8 c8 | %22
w: |* * * dent|o- mnes|San- * * * *|cti,|_||se- quun-|
 d8 e8 | f8 z4 B4 | B8 G4 B4- | B4 =A4 B4 F4 | z4 E4 A8 | G4 e8 d4 | c8 d8 | z8 F8 | B8 =A4 B4- | %31
w: tur A-|gnum a|mi- cti sto-|* lis al- bis,|a- mi-|cti sto- lis|al- bis,|a-|mi- cti sto-|
 B4 _A4 G8 | F4 B4 G4 G4 | F8 F4 G4 | G4 B4 =A6 A2 | B4 F4 c4 B4 | A8 G4 B4- | B4 c8 G4 | %38
w: * lis al-|bis se- quun- tur|A- gnum quo|cum- que i- e-|rit, se- quun- tur|A- gnum quo-|* cum que|
 B6 B2 B2 A2 G2 F2 | E6 F2 G8 | z4 B4 c8 | d8 e8 | f8 z4 B4 | c4 d4 c6 c2 | B8 z8 | z4 c4 d4 e4 | %46
w: i- e- rit _ _ _|_ _ _|se- quun-|tur A-|gnum quo-|cum- que i- e-|rit|se- quun- tur|
 f6 ed c2 d2 e2 c2 | d8 G4 e4 | d2 c2 B2 A2 G2 A2 B4- | B4 =A4 B8 | B4 B4 c4 =A4 | %51
w: A- * * * * * *|* gnum, se-|quun- * * * * * *|* tur A-|gnum quo- cum- que|
 B2 _A2 G2 F2 G2 F2 E2 D2 | C2 D2 E2 C2 D4 E4- | E4 D4 E8 |] %54
w: i- * * * * * * *||* e- rit.|
V:2
 G16 | G8 F8- | F4 G4 A8 | G4 G4 F8- | F8 E6 F2 | G4 E4 F4 G4 | A2 GF E2 F2 G8 | A6 GF E4 G4 | %8
w: O|quam glo-|* ri- o-|sum est re-|* gnum _|_ in quo cum|Chri- * * * * *|sto, _ _ _ in|
 G4 G4 F8 | E8 z8 | z4 F4 A4 A4 | G8 F4 A4- | A2 GF G2 A2 E8 | B8 E6 F2 | G8 z4 C4- | %15
w: quo cum Chri-|sto,|in quo cum|Chri- sto gau-||* dent, _|_ gau-|
 C2 D2 E2 F2 G8 | G8 E8- | E4 D4 C8 | B,8 z4 D4 | G8 F4 G4- | G4 B4 A2 G2 F2 E2 | D4 E8 F4- | %22
w: |dent o-|* mnes San-|cti, a-|mi- cti sto-|* lis al- * * *|* bis se-|
 F4 G8 A4 | F8 G8 | z8 z4 B,4 | C8 D8 | E8 F8 | z4 G4 =A4 B4- | B4 =A4 B4 B,4 | F8 D4 F4- | %30
w: * quun- tur|A- gnum,|se-|quun- tur|A- gnum|se- quun- tur|_ A- gnum a-|mi- cti sto-|
 F4 E4 C4 _D4 | C16 | z4 F4 E4 E4 | C8 D4 B,4 | E4 D4 F6 F2 | F8 z4 B,4 | C4 D4 E8 | E8 E8 | %38
w: * lis al- *|bis|se- quun- tur|A- gnum quo-|cum- que i- e-|rit, se-|quun- tur A-|gnum, se-|
 F8 G8 | A8 B4 B,4 | C4 D4 E8 | F8 z8 | z4 F4 B8 | =A4 B8 _A4 | G8 F8- | F8 z4 B,4 | C4 D4 E8 | %47
w: quun- tur|A- gnum, se-|quun- tur A-|gnum,|a- mi-|cti sto- lis|al- bis,|_ se-|quun- tur A-|
 F4 D4 E4 G4 | F6 F2 B,8 | z4 F8 G4- | G4 D4 F6 F2 | D8 B,4 C4- | C4 G,4 B,8 | B,8 B,8 |] %54
w: gnum quo- cum- que|i- e- rit|quo- cum|_ que i- e-|rit quo- cum-|* que i-|e- rit.|
V:3
 e16 | B4 e8 d2 c2 | d4 e4 e8 | e4 e4 c8- | c8 c8 | z16 | z4 c4 e4 e4 | _d8 c4 e4- | %8
w: O|quam glo- * *|* ri- o-|sum est re-|* gnum||in quo cum|Chri- sto gau-|
 e2 =dc B2 A2 F2 G2 A2 B2 | c2 d2 e2 f2 g8 | f8 z4 c4 | e4 e4 _d8 | c8 z4 g4- | g2 fe f2 g2 c6 d2 | %14
w: ||dent in|quo cum Chri-|sto gau-||
 e2 f2 g2 fe d2 e2 f4 | e4 c8 G4 | e6 f2 g2 f2 e2 d2 | c2 de f6 ed c4 | d8 z4 B4 | e8 d4 e4- | %20
w: |dent o- mens|San- * * * * *||cti, a-|mi- cti sto-|
 e4 d4 c8 | B8 z8 | z4 B4 c8 | d8 e8 | f4 B4 c4 d4 | e8 f8 | z4 B4 c4 d4 | e8 f8- | f8 z8 | z16 | %30
w: * lis al-|bis|se- quun-|tur A-|gnum, se- quun- tur|A- gnum|se- quun- tur|A- gnum|_||
 B8 f8 | =e4 f8 _e4 | d6 cB c2 B2 B4- | B4 =A4 B8 | z4 B4 c8 | d8 e8 | f8 z4 g4- | g4 e4 c4 e4- | %38
w: a- mi-|cti sto- lis|al- * * * * *|* * bis|se- quun-|tur A-|gnum quo-|* cum- que i-|
 e4 d4 e4 B4 | c8 d4 e4 | f8 z4 G4 | B8 c4 e4- | e4 d4 g8 | f16 | d4 e8 d4 | c8 B4 G4 | A8 c8 | %47
w: * e- rit, se-|quun- tur A-|gnum a-|mi- cti sto-|* lis al-|bis,|se- quun- tur|A- gnum quo-|cum- que|
 B6 B2 E8 | z4 f4 e4 g4 | f6 f2 B8 | G8 =A4 c4 | B6 B2 E8 | E8 F4 G4 | F6 F2 E8 |] %54
w: i- e- it,|quo- cum- que|i- e- rit,|quo- cum- que|i- e- rit|quo- cum- que|i- e- rit.|
V:4
 E,16 | E,8 B,8- | B,4 E,4 A,8 | E,4 E,4 F,8- | F,8 C,4 C4 | C4 C4 B,8 | A,8 z8 | z8 z4 C,4 | %8
w: O|quam glo-|* ri- o-|sum est re-|* gnum, in|quo cum Chri-|sto,|in|
 E,4 E,4 _D,8 | C,4 C6 B,A, G,2 A,2 | B,8 F,8 | z16 | z4 C4 C4 C4 | B,8 A,4 C4- | %14
w: quo cum Chri-|sto gau- * * * *|* dent,||in quo cum|Chri- sto gau-|
 C2 B,A, G,2 A,2 B,2 A,G, F,2 G,2 | A,8 E,8 | C,8 C,8 | F,16 | B,,16 | z16 | E,8 F,8 | G,8 A,8 | %22
w: |* dent|o- mnes|San-|cti,||se- quun-|tur A-|
 B,8 z8 | z4 B,,4 E,8 | D,4 E,8 D,4 | C,8 B,,4 B,4 | A,4 G,4 F,8 | E,8 z8 | F,8 B,8 | %29
w: gnum|a- mi-|cti sto- lis|al- bis, se-|quun- tur A-|gnum|a- mi-|
 =A,4 B,8 _A,4 | G,8 F,4 B,,4 | C,16 | D,8 E,8 | F,8 D,4 E,4- | E,4 G,4 F,6 F,2 | %35
w: cti sto- lis|al- bis, se-|quun-|tur A-|gnum quo- cum-|* que i- e-|
 B,,4 B,4 A,4 G,4 | F,8 E,8 | G,4 A,8 C4 | B,6 B,2 E,4 E,4 | A,8 G,4 E,4- | E,4 D,4 C,8 | %41
w: rit, se- quun- tur|A- gnum|quo- cum- que|i- e- rit, a-|mi- cti sto-|* lis al-|
 B,,4 B,4 A,4 G,4 | F,8 E,8 | z8 F,8 | B,8 =A,4 B,4- | B,4 _A,4 G,8 | F,8 z8 | B,,8 C,8 | D,8 E,8 | %49
w: bis, se- quun- tur|A- gnum|a-|mi- cti sto-|* lis al-|bis|se- quun-|tur A-|
 F,8 D,4 E,4- | E,4 G,4 F,6 F,2 | B,,8 G,,4 A,,4- | A,,4 C,4 B,,8 | B,,8 E,8 |] %54
w: gnum quo- cum-|* que i- e-|rit quo- cum-|* que i-|e- rit.|

